assets/logos/business-chat.svg

<svg width="80" height="80" viewBox="0 0 80 80" fill="none" xmlns="http://www.w3.org/2000/svg">
<path d="M40.3333 73.6667C58.7428 73.6667 73.6667 58.7428 73.6667 40.3333C73.6667 21.9238 58.7428 7 40.3333 7C21.9238 7 7 21.9238 7 40.3333C7 58.7428 21.9238 73.6667 40.3333 73.6667Z" fill="url(#paint0_linear_9912_1304)"/>
<path fill-rule="evenodd" clip-rule="evenodd" d="M35.4709 54.0618C33.6582 54.9958 30.7805 55.9752 26.8377 56.9999C28.6614 55.4297 29.9359 53.8771 30.6611 52.3423C25.5488 49.7395 22.1517 45.1345 22.1517 39.8877C22.1517 31.7658 30.292 25.1818 40.3335 25.1818C50.3751 25.1818 58.5154 31.7658 58.5154 39.8877C58.5154 48.0096 50.3751 54.5937 40.3335 54.5937C38.6494 54.5937 37.0187 54.4085 35.4709 54.0618Z" fill="white"/>
<defs>
<linearGradient id="paint0_linear_9912_1304" x1="40.3333" y1="7" x2="40.3333" y2="73.6667" gradientUnits="userSpaceOnUse">
<stop stop-color="#5CFF78"/>
<stop offset="1" stop-color="#00B705"/>
</linearGradient>
</defs>
</svg>

<svg xmlns="http://www.w3.org/2000/svg" width="80" height="80" fill="none" viewBox="0 0 80 80"><path fill="url(#a)" d="M40.333 73.667c18.41 0 33.334-14.924 33.334-33.334S58.743 7 40.333 7 7 21.924 7 40.333c0 18.41 14.924 33.334 33.333 33.334"/><path fill="#fff" fill-rule="evenodd" d="M35.47 54.062q-2.719 1.4-8.632 2.938 2.735-2.355 3.823-4.658c-5.112-2.602-8.51-7.207-8.51-12.454 0-8.122 8.141-14.706 18.183-14.706s18.181 6.584 18.181 14.706-8.14 14.706-18.181 14.706a22.3 22.3 0 0 1-4.863-.532" clip-rule="evenodd"/><defs><linearGradient id="a" x1="40.333" x2="40.333" y1="7" y2="73.667" gradientUnits="userSpaceOnUse"><stop stop-color="#5cff78"/><stop offset="1" stop-color="#00b705"/></linearGradient></defs></svg>
